X: 050
T: la Trompe
B: 204 Favourite Country Dances
N: Published by Straight & Skillern, London ca.1775
F: http://imslp.org/wiki/204_Favourite_Country_Dances_(Various) p.25 #50
Z: 2014 John Chambers <jc:trillian.mit.edu>
M: 2/4
L: 1/16
K: G
% - - - - - - - - - - - - - - - - - - - - - - - - -
|:\
B2(cd)B2G2 | c2de d4 | c2B2A2G2 | F2A2F2D2 |\
B2(cd)B2G2 | c2de d4 | c2B2A2G2 | FGAF G4 :|
|:\
F2GAF2D2 | F2GAF2D2 | B2d2^c2e2 | dcde d2=c2 |\
B2(cd)B2G2 | c2de d4 | c2B2A2G2 | FGAF G4 :|
% - - - - - - - - - - - - - - - - - - - - - - - - -
%%begintext align
%% Cast off 2 Cu. cast up again cross over 2
%% Cu. lead up & cast off Right & Left at top
%%endtext

%%sep 1 1 500
%%sep 1 1 500
